X:1
L:1/8
Q:1/4=100
M:6/8
K:Edor
 ^Eda ugge B2 z B2 c | d3 Bcd | e3 d2 c | B2 B A2 F | D3 E2 F | G2 A B2 B | A2 G F2 G | 
 !fermata!E3 |]
